X:1
T:Edward in the Lowlands Low
M:2/2
L:1/4
K:E
 z2 z E| E E F A| B3/2 B/2 B c| B A E F| E3 A| B3/2 B/2 B B| e e e c|\
 A3/2 A/2 B c| B3 A| B3/2 B/2 B B| e e e c| A3/2 A/2 B c| B3E/2-F/2|\
 E2- c B| A F E C| E A A F| E3 z|
